symbols/web/front_hand/materialsymbolsoutlined/front_hand_wght700fill1_48px.svg

<svg xmlns="http://www.w3.org/2000/svg" height="48" width="48"><path d="M24.3 49.15q-3.85 0-7.25-1.225T11.125 44.4q-2.525-2.3-4-5.575Q5.65 35.55 5.65 31.5V11.05q0-1.3.875-2.175Q7.4 8 8.7 8q1.25 0 2.15.875.9.875.9 2.175v10.8h2V5.35q0-1.3.85-2.175.85-.875 2.15-.875 1.25 0 2.15.875.9.875.9 2.175V23h2V3.05q0-1.3.85-2.175Q23.5 0 24.8 0q1.3 0 2.175.875.875.875.875 2.125v20h2V7.4q0-1.3.85-2.175.85-.875 2.15-.875 1.25 0 2.125.875T35.85 7.4V27q-4.15 1.05-6.475 3.825Q27.05 33.6 26.9 37.5h2q.15-3.35 2.675-6.125t6.875-2.925h-.6V20.4q0-1.3.85-2.125t2.15-.825q1.25 0 2.075.825.825.825.825 2.125v11.1q0 4.1-1.6 7.375-1.6 3.275-4.275 5.55-2.675 2.275-6.2 3.5Q28.15 49.15 24.3 49.15Z"/></svg>

<svg xmlns="http://www.w3.org/2000/svg" height="48" width="48"><path d="M24.3 49.15Q20.45 49.15 17.05 47.925Q13.65 46.7 11.125 44.4Q8.6 42.1 7.125 38.825Q5.65 35.55 5.65 31.5V11.05Q5.65 9.75 6.525 8.875Q7.4 8 8.7 8Q9.95 8 10.85 8.875Q11.75 9.75 11.75 11.05V21.85H13.75V5.35Q13.75 4.05 14.6 3.175Q15.45 2.3 16.75 2.3Q18 2.3 18.9 3.175Q19.8 4.05 19.8 5.35V23H21.8V3.05Q21.8 1.75 22.65 0.875Q23.5 0 24.8 0Q26.1 0 26.975 0.875Q27.85 1.75 27.85 3V23H29.85V7.4Q29.85 6.1 30.7 5.225Q31.55 4.35 32.85 4.35Q34.1 4.35 34.975 5.225Q35.85 6.1 35.85 7.4V27Q31.7 28.05 29.375 30.825Q27.05 33.6 26.9 37.5H28.9Q29.05 34.15 31.575 31.375Q34.1 28.6 38.45 28.45H37.85V20.4Q37.85 19.1 38.7 18.275Q39.55 17.45 40.85 17.45Q42.1 17.45 42.925 18.275Q43.75 19.1 43.75 20.4V31.5Q43.75 35.6 42.15 38.875Q40.55 42.15 37.875 44.425Q35.2 46.7 31.675 47.925Q28.15 49.15 24.3 49.15Z"/></svg>
